X:1
T:Boyne Water [1]
L:1/8
M:C
S:Joyce - Old Irish Folk Music
Z:Andrew Kuntz <AIKuntz@aol.com> irtrad-l 2000-09-30
K:E Minor
ED|B,2 B2 B>cdB|AGFE D2 E>F|G2 FE BAGF|(E3D) B,2 E>D|B,2 B2 B>cdB|
AGFE D2 EF|G2 FE B>AGF|E4 E2||E>F|A2B2d2 e>f|e>d cB A3A|B2e2 e>def|
(e3d B2) Bc|dcde d2 cB|A>GFE D2 EF|G2 FE B>A GF|E4E2||
